svg/eye_remove_outline.svg

<svg xmlns="http://www.w3.org/2000/svg" viewBox="0 0 24 24"><path d="M22.54 16.88 20.41 19l2.13 2.12-1.42 1.42L19 20.41l-2.12 2.13-1.41-1.42L17.59 19l-2.12-2.12 1.41-1.41L19 17.59l2.12-2.12zM12 9c-1.66 0-3 1.34-3 3s1.34 3 3 3 3-1.34 3-3-1.34-3-3-3m0 8.5c-3.76 0-7.17-2.14-8.82-5.5a9.821 9.821 0 0 1 17.64 0c-.19.39-.41.77-.65 1.13.68.13 1.33.37 1.9.72.36-.58.67-1.2.93-1.85-1.73-4.39-6-7.5-11-7.5S2.73 7.61 1 12c1.73 4.39 6 7.5 11 7.5.35 0 .69 0 1.03-.05-.03-.15-.03-.3-.03-.45 0-.55.08-1.08.22-1.59-.4.05-.81.09-1.22.09"/></svg>

<?xml version="1.0" encoding="UTF-8"?><!DOCTYPE svg PUBLIC "-//W3C//DTD SVG 1.1//EN" "http://www.w3.org/Graphics/SVG/1.1/DTD/svg11.dtd"><svg xmlns="http://www.w3.org/2000/svg" xmlns:xlink="http://www.w3.org/1999/xlink" version="1.1" id="mdi-eye-remove-outline" width="24" height="24" viewBox="0 0 24 24"><path d="M22.54 16.88L20.41 19L22.54 21.12L21.12 22.54L19 20.41L16.88 22.54L15.47 21.12L17.59 19L15.47 16.88L16.88 15.47L19 17.59L21.12 15.47L22.54 16.88M12 9C10.34 9 9 10.34 9 12S10.34 15 12 15 15 13.66 15 12 13.66 9 12 9M12 17.5C8.24 17.5 4.83 15.36 3.18 12C4.83 8.64 8.24 6.5 12 6.5S19.17 8.64 20.82 12C20.63 12.39 20.41 12.77 20.17 13.13C20.85 13.26 21.5 13.5 22.07 13.85C22.43 13.27 22.74 12.65 23 12C21.27 7.61 17 4.5 12 4.5S2.73 7.61 1 12C2.73 16.39 7 19.5 12 19.5C12.35 19.5 12.69 19.5 13.03 19.45C13 19.3 13 19.15 13 19C13 18.45 13.08 17.92 13.22 17.41C12.82 17.46 12.41 17.5 12 17.5Z" /></svg>
